freelas/beat/styles/bigplay.svg

<?xml version="1.0" standalone="no"?><!-- Generator: Adobe Fireworks CS6, Export SVG Extension by Aaron Beall (http://fireworks.abeall.com) . Version: 0.6.1  --><!DOCTYPE svg PUBLIC "-//W3C//DTD SVG 1.1//EN" "http://www.w3.org/Graphics/SVG/1.1/DTD/svg11.dtd"><svg id="bigplay-gradient.fw-Page%201" viewBox="0 0 100 200" style="background-color:#ffffff00" version="1.1"	xmlns="http://www.w3.org/2000/svg" xmlns:xlink="http://www.w3.org/1999/xlink" xml:space="preserve"	x="0px" y="0px" width="100px" height="200px">	<defs>		<radialGradient id="gradient1" cx="50%" cy="50%" r="50%">			<stop stop-color="#222222" stop-opacity="0" offset="70%"/>			<stop stop-color="#222222" stop-opacity="0.0118" offset="70.202%"/>			<stop stop-color="#333333" stop-opacity="1" offset="85%"/>			<stop stop-color="#333333" stop-opacity="0" offset="100%"/>		</radialGradient>		<radialGradient id="gradient2" cx="50%" cy="50%" r="50%">			<stop stop-color="#bbbbbb" stop-opacity="0" offset="70%"/>			<stop stop-color="#bbbbbb" stop-opacity="0.0118" offset="70.202%"/>			<stop stop-color="#bbbbbb" stop-opacity="1" offset="85%"/>			<stop stop-color="#bbbbbb" stop-opacity="0" offset="100%"/>		</radialGradient>		<filter id="filter1" x="-100%" y="-100%" width="300%" height="300%">			<!-- Glow -->			<feColorMatrix result="out" in="SourceGraphic" type="matrix" values="0 0 0 0 0  0 0 0 0 0  0 0 0 0 0  0 0 0 0.251 0"/>			<feMorphology result="out" in="out" operator="dilate" radius="3"/>			<feGaussianBlur result="out" in="out" stdDeviation="1.5"/>			<feBlend in="SourceGraphic" in2="out" mode="normal" result="Glow1"/>		</filter>		<filter id="filter2" x="-100%" y="-100%" width="300%" height="300%">			<!-- Glow -->			<feColorMatrix result="out" in="SourceGraphic" type="matrix" values="0 0 0 0.8667 0  0 0 0 0.8667 0  0 0 0 0.8667 0  0 0 0 0.251 0"/>			<feMorphology result="out" in="out" operator="dilate" radius="3"/>			<feGaussianBlur result="out" in="out" stdDeviation="1.5"/>			<feBlend in="SourceGraphic" in2="out" mode="normal" result="Glow2"/>		</filter>	</defs>	<g id="Background">	</g>	<g id="dark%20shadow">		<path d="M 22 50 C 22 34.5358 34.5358 22 50 22 C 65.4642 22 78 34.5358 78 50 C 78 65.4642 65.4642 78 50 78 C 34.5358 78 22 65.4642 22 50 ZM 5 50 C 5 74.8531 25.1469 95 50 95 C 74.8531 95 95 74.8531 95 50 C 95 25.1469 74.8531 5 50 5 C 25.1469 5 5 25.1469 5 50 Z" fill="url(#gradient1)"/>		<path d="M 22 150 C 22 134.5358 34.5358 122 50 122 C 65.4642 122 78 134.5358 78 150 C 78 165.4642 65.4642 178 50 178 C 34.5358 178 22 165.4642 22 150 ZM 5 150 C 5 174.8531 25.1469 195 50 195 C 74.8531 195 95 174.8531 95 150 C 95 125.1469 74.8531 105 50 105 C 25.1469 105 5 125.1469 5 150 Z" fill="url(#gradient2)"/>	</g>	<g id="dark">		<path id="Polygon" filter="url(#filter1)" d="M 72.5 49.5 L 38.75 68.9856 L 38.75 30.0144 L 72.5 49.5 Z" fill="#ffffff"/>		<path id="Ellipse" d="M 13 50.5 C 13 29.7891 29.7891 13 50.5 13 C 71.2109 13 88 29.7891 88 50.5 C 88 71.2109 71.2109 88 50.5 88 C 29.7891 88 13 71.2109 13 50.5 Z" stroke="#ffffff" stroke-width="5" fill="none"/>	</g>	<g id="light">		<path id="Polygon2" filter="url(#filter2)" d="M 72.5 149.5 L 38.75 168.9856 L 38.75 130.0144 L 72.5 149.5 Z" fill="#ffffff"/>		<path id="Ellipse2" d="M 13 150.5 C 13 129.7891 29.7891 113 50.5 113 C 71.2109 113 88 129.7891 88 150.5 C 88 171.211 71.2109 188 50.5 188 C 29.7891 188 13 171.211 13 150.5 Z" stroke="#ffffff" stroke-width="5" fill="none"/>	</g></svg>

<svg viewBox="0 0 100 200" style="background-color:#ffffff00" xmlns="http://www.w3.org/2000/svg" width="100" height="200"><defs><radialGradient id="a"><stop stop-color="#222" stop-opacity="0" offset="70%"/><stop stop-color="#222" stop-opacity=".012" offset="70.202%"/><stop stop-color="#333" offset="85%"/><stop stop-color="#333" stop-opacity="0" offset="100%"/></radialGradient><radialGradient id="b"><stop stop-color="#bbb" stop-opacity="0" offset="70%"/><stop stop-color="#bbb" stop-opacity=".012" offset="70.202%"/><stop stop-color="#bbb" offset="85%"/><stop stop-color="#bbb" stop-opacity="0" offset="100%"/></radialGradient><filter id="c" x="-100%" y="-100%" width="300%" height="300%"><feColorMatrix result="out" in="SourceGraphic" values="0 0 0 0 0 0 0 0 0 0 0 0 0 0 0 0 0 0 0.251 0"/><feMorphology result="out" in="out" operator="dilate" radius="3"/><feGaussianBlur result="out" in="out" stdDeviation="1.5"/><feBlend in="SourceGraphic" in2="out" result="Glow1"/></filter><filter id="d" x="-100%" y="-100%" width="300%" height="300%"><feColorMatrix result="out" in="SourceGraphic" values="0 0 0 0.8667 0 0 0 0 0.8667 0 0 0 0 0.8667 0 0 0 0 0.251 0"/><feMorphology result="out" in="out" operator="dilate" radius="3"/><feGaussianBlur result="out" in="out" stdDeviation="1.5"/><feBlend in="SourceGraphic" in2="out" result="Glow2"/></filter></defs><g><path d="M22 50c0-15.464 12.536-28 28-28s28 12.536 28 28-12.536 28-28 28-28-12.536-28-28zm-17 0c0 24.853 20.147 45 45 45s45-20.147 45-45-20.147-45-45-45-45 20.147-45 45z" fill="url(#a)"/><path d="M22 150c0-15.464 12.536-28 28-28s28 12.536 28 28-12.536 28-28 28-28-12.536-28-28zm-17 0c0 24.853 20.147 45 45 45s45-20.147 45-45-20.147-45-45-45-45 20.147-45 45z" fill="url(#b)"/></g><g><path filter="url(#c)" d="M72.5 49.5l-33.75 19.486v-38.971l33.75 19.486z" fill="#fff"/><path d="M13 50.5c0-20.711 16.789-37.5 37.5-37.5s37.5 16.789 37.5 37.5-16.789 37.5-37.5 37.5-37.5-16.789-37.5-37.5z" stroke="#fff" stroke-width="5" fill="none"/></g><g><path filter="url(#d)" d="M72.5 149.5l-33.75 19.486v-38.971l33.75 19.486z" fill="#fff"/><path d="M13 150.5c0-20.711 16.789-37.5 37.5-37.5s37.5 16.789 37.5 37.5-16.789 37.5-37.5 37.5-37.5-16.789-37.5-37.5z" stroke="#fff" stroke-width="5" fill="none"/></g></svg>
